X: 30194
T: Old Gort Road, The
R: slide
M: 12/8
K: Dmajor
A|def A2f a2f d2A|def a2f e3 e2A|
def A2f a2f d2A|def a2f d3 d2:|
b|b2a gab a2f d2A|def a2f e3 e2b|
b2a gab a2f d2A|def a2f d3 d2:|

